!!!COM: Daser, Ludwig
!!!CDT: ~1526-1589/03/27
!!!OPR: Missa Preter rerum
!!!ONM: 5
!!!OTL: Agnus Dei
!!!AGN: Mass; Agnus Dei
!!!SCT: Das1002e
!!!SCA: Das1002e
!!!voices: 6
!!!voices-OPR: 6
**kern	**text	**text	**kern	**text	**text	**kern	**text	**text	**kern	**text	**text	**kern	**text	**text	**kern	**text	**text
*staff6	*staff6	*staff6	*staff5	*staff5	*staff5	*staff4	*staff4	*staff4	*staff3	*staff3	*staff3	*staff2	*staff2	*staff2	*staff1	*staff1	*staff1
*Ivox	*	*	*Ivox	*	*	*Ivox	*	*	*Ivox	*	*	*Ivox	*	*	*Ivox	*	*
*I"Bassus2	*	*	*I"Bassus1	*	*	*I"Tenor2	*	*	*I"Tenor1	*	*	*I"Contratenor	*	*	*I"Discantus	*	*
*I'B2	*	*	*I'B1	*	*	*I'T2	*	*	*I'T1	*	*	*I'Ct	*	*	*I'D	*	*
*clefF4	*	*	*clefF4	*	*	*clefGv2	*	*	*clefGv2	*	*	*clefGv2	*	*	*clefG2	*	*
*k[b-]	*	*	*k[b-]	*	*	*k[b-]	*	*	*k[b-]	*	*	*k[b-]	*	*	*k[b-]	*	*
*M2/1	*	*	*M2/1	*	*	*M2/1	*	*	*M2/1	*	*	*M2/1	*	*	*M2/1	*	*
*met(C|)	*	*	*met(C|)	*	*	*met(C|)	*	*	*met(C|)	*	*	*met(C|)	*	*	*met(C|)	*	*
=1-	=1-	=1-	=1-	=1-	=1-	=1-	=1-	=1-	=1-	=1-	=1-	=1-	=1-	=1-	=1-	=1-	=1-
1.GG	A-	&	0r	.	.	0r	.	.	0r	.	.	0r	.	.	0r	.	.
2AA	.	.	.	.	.	.	.	.	.	.	.	.	.	.	.	.	.
=2	=2	=2	=2	=2	=2	=2	=2	=2	=2	=2	=2	=2	=2	=2	=2	=2	=2
1BB-	.	.	0r	.	.	0r	.	.	0r	.	.	0r	.	.	0r	.	.
1C	.	.	.	.	.	.	.	.	.	.	.	.	.	.	.	.	.
=3	=3	=3	=3	=3	=3	=3	=3	=3	=3	=3	=3	=3	=3	=3	=3	=3	=3
2BB-	.	.	1.D	A-	&	0r	.	.	0r	.	.	0r	.	.	0r	.	.
2GG	-gnus	.	.	.	.	.	.	.	.	.	.	.	.	.	.	.	.
2BB-	De-	.	.	.	.	.	.	.	.	.	.	.	.	.	.	.	.
2C	.	.	2E	-gnus	.	.	.	.	.	.	.	.	.	.	.	.	.
=4	=4	=4	=4	=4	=4	=4	=4	=4	=4	=4	=4	=4	=4	=4	=4	=4	=4
1D	.	.	1F	De-	.	0r	.	.	0r	.	.	0r	.	.	0r	.	.
1E-i	.	.	1G	.	.	.	.	.	.	.	.	.	.	.	.	.	.
=5	=5	=5	=5	=5	=5	=5	=5	=5	=5	=5	=5	=5	=5	=5	=5	=5	=5
1.D	.	.	2F	.	.	0r	.	.	0r	.	.	0r	.	.	0r	.	.
.	.	.	2D	.	.	.	.	.	.	.	.	.	.	.	.	.	.
.	.	.	2F	.	.	.	.	.	.	.	.	.	.	.	.	.	.
4C	.	.	2G	.	.	.	.	.	.	.	.	.	.	.	.	.	.
4BB-	.	.	.	.	.	.	.	.	.	.	.	.	.	.	.	.	.
=6	=6	=6	=6	=6	=6	=6	=6	=6	=6	=6	=6	=6	=6	=6	=6	=6	=6
1AA	.	.	1A	.	.	0r	.	.	0r	.	.	0r	.	.	0r	.	.
1GG	.	.	1B-	.	.	.	.	.	.	.	.	.	.	.	.	.	.
=7	=7	=7	=7	=7	=7	=7	=7	=7	=7	=7	=7	=7	=7	=7	=7	=7	=7
2.D	.	.	2A	.	.	0r	.	.	0r	.	.	0r	.	.	0r	.	.
.	.	.	2.F	.	.	.	.	.	.	.	.	.	.	.	.	.	.
4E	.	.	.	.	.	.	.	.	.	.	.	.	.	.	.	.	.
4F	.	.	.	.	.	.	.	.	.	.	.	.	.	.	.	.	.
4G	.	.	4E	.	.	.	.	.	.	.	.	.	.	.	.	.	.
[2A	.	.	2D	.	.	.	.	.	.	.	.	.	.	.	.	.	.
=8	=8	=8	=8	=8	=8	=8	=8	=8	=8	=8	=8	=8	=8	=8	=8	=8	=8
4A]	.	.	2C	.	.	0r	.	.	0r	.	.	0r	.	.	0r	.	.
4G	.	.	.	.	.	.	.	.	.	.	.	.	.	.	.	.	.
1G	.	.	2BB-	.	.	.	.	.	.	.	.	.	.	.	.	.	.
.	.	.	1AA	.	.	.	.	.	.	.	.	.	.	.	.	.	.
2F#i	.	.	.	.	.	.	.	.	.	.	.	.	.	.	.	.	.
=9	=9	=9	=9	=9	=9	=9	=9	=9	=9	=9	=9	=9	=9	=9	=9	=9	=9
1.G	-i,	.	1GG	-i,	.	2.G	A-	&	0G	Pre-	&	1.d	A-	&	0g	A-	&
.	.	.	.	.	.	4A	.	.	.	.	.	.	.	.	.	.	.
.	.	.	1r	.	.	2B-	.	.	.	.	.	.	.	.	.	.	.
2C	De-	.	.	.	.	2c	.	.	.	.	.	2e-i	.	.	.	.	.
=10	=10	=10	=10	=10	=10	=10	=10	=10	=10	=10	=10	=10	=10	=10	=10	=10	=10
1G	.	.	1GG	.	.	2B-	-gnus	.	0G	-ter	.	2d	-gnus	.	1g	-gnus	.
.	.	.	.	.	.	2G	De-	.	.	.	.	1g	De-	.	.	.	.
1GG	-i,	.	2r	.	.	2.B-	.	.	.	.	.	.	.	.	2.g	De-	.
.	.	.	2G	A-	.	.	.	.	.	.	.	4f	.	.	.	.	.
.	.	.	.	.	.	4c	.	.	.	.	.	4e	.	.	4a	.	.
=11	=11	=11	=11	=11	=11	=11	=11	=11	=11	=11	=11	=11	=11	=11	=11	=11	=11
1r	.	.	2G	-gnus	.	2d	.	.	0G	re-	.	2d	.	.	2b-	.	.
.	.	.	2C	De-	.	2e-i	.	.	.	.	.	2c	.	.	1cc	.	.
1GG	qui	.	2.G	.	.	1d	.	.	.	.	.	1d	.	.	.	.	.
.	.	.	.	.	.	.	.	.	.	.	.	.	.	.	2b-	.	.
.	.	.	4F	.	.	.	.	.	.	.	.	.	.	.	.	.	.
=12	=12	=12	=12	=12	=12	=12	=12	=12	=12	=12	=12	=12	=12	=12	=12	=12	=12
1C	tol-	.	2E	.	.	1c	-i,	.	1G	-rum	.	1e	-i,	.	2cc	-i,	.
.	.	.	2C	.	.	.	.	.	.	.	.	.	.	.	2g	qui	.
1BB-	.	.	2.D	.	.	1r	.	.	1G	se-	.	2d	qui	.	1b-	tol-	.
.	.	.	.	.	.	.	.	.	.	.	.	2g	tol-	.	.	.	.
.	.	.	4E	.	.	.	.	.	.	.	.	.	.	.	.	.	.
=13	=13	=13	=13	=13	=13	=13	=13	=13	=13	=13	=13	=13	=13	=13	=13	=13	=13
0AA	.	.	1F	.	.	2r	.	.	0A	-ri-	.	2f	.	.	2cc	.	.
.	.	.	.	.	.	2.A	qui	.	.	.	.	4e	.	.	1dd	.	.
.	.	.	.	.	.	.	.	.	.	.	.	4d	.	.	.	.	.
.	.	.	1E	-i	.	.	.	.	.	.	.	1e	.	.	.	.	.
.	.	.	.	.	.	4B-	.	.	.	.	.	.	.	.	.	.	.
.	.	.	.	.	.	2c	.	.	.	.	.	.	.	.	2cc	.	.
=14	=14	=14	=14	=14	=14	=14	=14	=14	=14	=14	=14	=14	=14	=14	=14	=14	=14
1.BB-	.	.	2r	.	.	1.B-	tol-	.	[0F	-em	.	2d	.	.	1.dd	.	.
.	.	.	2D	qui	.	.	.	.	.	.	.	2B-	.	.	.	.	.
.	.	.	2D	tol-	.	.	.	.	.	.	.	[1f	.	.	.	.	.
2AA	.	.	2A	-lis	.	2c	.	.	.	.	.	.	.	.	[2cc	.	.
=15	=15	=15	=15	=15	=15	=15	=15	=15	=15	=15	=15	=15	=15	=15	=15	=15	=15
1BB-	.	.	2D	pec-	.	2d	.	.	0F_	.	.	0f]	.	.	4cc]	.	.
.	.	.	.	.	.	.	.	.	.	.	.	.	.	.	4b-	.	.
.	.	.	2.F	-ca-	.	2B-	.	.	.	.	.	.	.	.	1b-	.	.
1FF	.	.	.	.	.	1c	.	.	.	.	.	.	.	.	.	.	.
.	.	.	4E	.	.	.	.	.	.	.	.	.	.	.	.	.	.
.	.	.	2C	.	.	.	.	.	.	.	.	.	.	.	2a	.	.
=16	=16	=16	=16	=16	=16	=16	=16	=16	=16	=16	=16	=16	=16	=16	=16	=16	=16
1BB-	-lis,	.	2D	.	.	0B-	-lis	.	0F]	.	.	[0d	-lis	.	[0b-	-lis	.
.	.	.	2.BB-	.	.	.	.	.	.	.	.	.	.	.	.	.	.
2r	.	.	.	.	.	.	.	.	.	.	.	.	.	.	.	.	.
.	.	.	4C	.	.	.	.	.	.	.	.	.	.	.	.	.	.
[2BB-	tol-	.	4D	.	.	.	.	.	.	.	.	.	.	.	.	.	.
.	.	.	4E	.	.	.	.	.	.	.	.	.	.	.	.	.	.
=17	=17	=17	=17	=17	=17	=17	=17	=17	=17	=17	=17	=17	=17	=17	=17	=17	=17
2BB-]	.	.	2F	.	.	0r	.	.	0B-	pa-	.	0d]	.	.	0b-]	.	.
2GG	.	.	2.G	.	.	.	.	.	.	.	.	.	.	.	.	.	.
1GG	-lis	.	.	.	.	.	.	.	.	.	.	.	.	.	.	.	.
.	.	.	4F	.	.	.	.	.	.	.	.	.	.	.	.	.	.
.	.	.	2D	.	.	.	.	.	.	.	.	.	.	.	.	.	.
=18	=18	=18	=18	=18	=18	=18	=18	=18	=18	=18	=18	=18	=18	=18	=18	=18	=18
2r	.	.	2.E-	.	.	0r	.	.	0B-	-rit	.	0r	.	.	0r	.	.
2.G	pec-	.	.	.	.	.	.	.	.	.	.	.	.	.	.	.	.
.	.	.	4D	.	.	.	.	.	.	.	.	.	.	.	.	.	.
.	.	.	1BB-	-ta,	.	.	.	.	.	.	.	.	.	.	.	.	.
4F	.	.	.	.	.	.	.	.	.	.	.	.	.	.	.	.	.
2D	.	.	.	.	.	.	.	.	.	.	.	.	.	.	.	.	.
=19	=19	=19	=19	=19	=19	=19	=19	=19	=19	=19	=19	=19	=19	=19	=19	=19	=19
2.E-	-ca-	.	2r	.	.	0r	.	.	0B-	De-	.	0r	.	.	0r	.	.
.	.	.	1G	pec-	.	.	.	.	.	.	.	.	.	.	.	.	.
4D	.	.	.	.	.	.	.	.	.	.	.	.	.	.	.	.	.
1BB-	.	.	.	.	.	.	.	.	.	.	.	.	.	.	.	.	.
.	.	.	2F	-ca-	.	.	.	.	.	.	.	.	.	.	.	.	.
=20	=20	=20	=20	=20	=20	=20	=20	=20	=20	=20	=20	=20	=20	=20	=20	=20	=20
2GG	-ta	.	2G	-ta	.	0r	.	.	1B-	-um	.	0r	.	.	0r	.	.
1D	mun-	.	1F	mun-	.	.	.	.	.	.	.	.	.	.	.	.	.
.	.	.	.	.	.	.	.	.	[1A	et	.	.	.	.	.	.	.
4C	.	.	4E	.	.	.	.	.	.	.	.	.	.	.	.	.	.
4BB-	.	.	4D	.	.	.	.	.	.	.	.	.	.	.	.	.	.
=21	=21	=21	=21	=21	=21	=21	=21	=21	=21	=21	=21	=21	=21	=21	=21	=21	=21
2C	.	.	2E	.	.	0r	.	.	1A]	.	.	0r	.	.	0r	.	.
2D	.	.	2F	.	.	.	.	.	.	.	.	.	.	.	.	.	.
2BB-	.	.	2D	.	.	.	.	.	[1G	ho-	.	.	.	.	.	.	.
[2C	.	.	[2E	.	.	.	.	.	.	.	.	.	.	.	.	.	.
=22	=22	=22	=22	=22	=22	=22	=22	=22	=22	=22	=22	=22	=22	=22	=22	=22	=22
4C]	.	.	4E]	.	.	0r	.	.	1G]	.	.	0r	.	.	0r	.	.
4BB-	.	.	4D	.	.	.	.	.	.	.	.	.	.	.	.	.	.
4AA	.	.	4C	.	.	.	.	.	.	.	.	.	.	.	.	.	.
4GG	.	.	4BB-	.	.	.	.	.	.	.	.	.	.	.	.	.	.
1AA	.	.	1C	.	.	.	.	.	1F#i	.	.	.	.	.	.	.	.
=23	=23	=23	=23	=23	=23	=23	=23	=23	=23	=23	=23	=23	=23	=23	=23	=23	=23
1GG	-di,	.	1.D	-di,	.	0B-	pec-	.	1G	-mi-	.	1r	.	.	[0dd	pec-	.
2.BB-	pec-	.	.	.	.	.	.	.	2F	-nem	.	[1f	pec-	.	.	.	.
.	.	.	[2F	pec-	.	.	.	.	4D	pec-	.	.	.	.	.	.	.
4C	.	.	.	.	.	.	.	.	4E	.	.	.	.	.	.	.	.
=24	=24	=24	=24	=24	=24	=24	=24	=24	=24	=24	=24	=24	=24	=24	=24	=24	=24
1D	.	.	2F]	.	.	0A	-ca-	.	4F	.	.	1f]	.	.	1dd]	.	.
.	.	.	.	.	.	.	.	.	4G	.	.	.	.	.	.	.	.
.	.	.	2D	-ca-	.	.	.	.	4A	.	.	.	.	.	.	.	.
.	.	.	.	.	.	.	.	.	4B-	.	.	.	.	.	.	.	.
1AA	-ca-	.	2E	-ta	.	.	.	.	2c	.	.	[1e	-ca-	.	[1cc	-ca-	.
.	.	.	[2E	mun-	.	.	.	.	4C	-ca-	.	.	.	.	.	.	.
.	.	.	.	.	.	.	.	.	4D	.	.	.	.	.	.	.	.
=25	=25	=25	=25	=25	=25	=25	=25	=25	=25	=25	=25	=25	=25	=25	=25	=25	=25
1C	.	.	2E]	.	.	0G	-ta	.	4E	.	.	1e]	.	.	1cc]	.	.
.	.	.	.	.	.	.	.	.	4F	.	.	.	.	.	.	.	.
.	.	.	2C	.	.	.	.	.	4G	.	.	.	.	.	.	.	.
.	.	.	.	.	.	.	.	.	4A	.	.	.	.	.	.	.	.
1GG	-ta	.	2D	-di,	.	.	.	.	1B-	-ta	.	[1d	-ta	.	[1b-	-ta	.
.	.	.	[2D	pec-	.	.	.	.	.	.	.	.	.	.	.	.	.
=26	=26	=26	=26	=26	=26	=26	=26	=26	=26	=26	=26	=26	=26	=26	=26	=26	=26
1BB-	.	.	2D]	.	.	0F	mun-	.	3.FV	mun-	.	1d]	.	.	1b-]	.	.
.	.	.	2BB-	-ca-	.	.	.	.	6E	.	.	.	.	.	.	.	.
.	.	.	.	.	.	.	.	.	3DZ	.	.	.	.	.	.	.	.
1FF	.	.	2C	-ta	.	.	.	.	1A	-di,	.	[1c	mun-	.	1a	.	.
.	.	.	[2F	mun-	.	.	.	.	.	.	.	.	.	.	.	.	.
=27	=27	=27	=27	=27	=27	=27	=27	=27	=27	=27	=27	=27	=27	=27	=27	=27	=27
0C	mun-	.	2F]	.	.	[0G	-di:	.	0r	.	.	0c]	.	.	1.g	.	.
.	.	.	4E	.	.	.	.	.	.	.	.	.	.	.	.	.	.
.	.	.	4D	.	.	.	.	.	.	.	.	.	.	.	.	.	.
.	.	.	1E	.	.	.	.	.	.	.	.	.	.	.	.	.	.
.	.	.	.	.	.	.	.	.	.	.	.	.	.	.	[2cc	mun-	.
=28	=28	=28	=28	=28	=28	=28	=28	=28	=28	=28	=28	=28	=28	=28	=28	=28	=28
0GG	-di,	.	0D	-di:	.	0G]	.	.	2r	.	.	0d	-di,	.	2cc]	.	.
.	.	.	.	.	.	.	.	.	2G	pec-	.	.	.	.	4b-	.	.
.	.	.	.	.	.	.	.	.	.	.	.	.	.	.	4a	.	.
.	.	.	.	.	.	.	.	.	1B-	-ca-	.	.	.	.	2.b-	.	.
.	.	.	.	.	.	.	.	.	.	.	.	.	.	.	8aL	.	.
.	.	.	.	.	.	.	.	.	.	.	.	.	.	.	8gJ	.	.
=29	=29	=29	=29	=29	=29	=29	=29	=29	=29	=29	=29	=29	=29	=29	=29	=29	=29
2.D	pec-	.	0r	.	.	0r	.	.	2A	.	.	1d	pec-	.	[0f	-di,	.
.	.	.	.	.	.	.	.	.	2B-	.	.	.	.	.	.	.	.
4E	.	.	.	.	.	.	.	.	.	.	.	.	.	.	.	.	.
2F	.	.	.	.	.	.	.	.	2A	-ta	.	2c	-ca-	.	.	.	.
[2BB-	-ca-	.	.	.	.	.	.	.	[2B-	mun-	.	[2d	-ta	.	.	.	.
=30	=30	=30	=30	=30	=30	=30	=30	=30	=30	=30	=30	=30	=30	=30	=30	=30	=30
4BB-]	.	.	0r	.	.	0r	.	.	4B-]	.	.	4d]	.	.	1f]	.	.
4C	.	.	.	.	.	.	.	.	4A	.	.	4c	.	.	.	.	.
2D	.	.	.	.	.	.	.	.	2F	.	.	2A	.	.	.	.	.
1GG	-ta	.	.	.	.	.	.	.	2G	-di,	.	1B-	.	.	2d	pec-	.
.	.	.	.	.	.	.	.	.	2G	pec-	.	.	.	.	[2dd	-ca-	.
=31	=31	=31	=31	=31	=31	=31	=31	=31	=31	=31	=31	=31	=31	=31	=31	=31	=31
2.G	mun-	.	0r	.	.	0r	.	.	2.B-	-ca-	.	2G	.	.	2dd]	.	.
.	.	.	.	.	.	.	.	.	.	.	.	2g	mun-	.	2b-	.	.
4A	.	.	.	.	.	.	.	.	4c	.	.	.	.	.	.	.	.
2B-	.	.	.	.	.	.	.	.	2d	.	.	2f	.	.	[1b-	-ta	.
[2E-	.	.	.	.	.	.	.	.	[2e-	-ta	.	[2g	.	.	.	.	.
=32	=32	=32	=32	=32	=32	=32	=32	=32	=32	=32	=32	=32	=32	=32	=32	=32	=32
4E-]	.	.	0r	.	.	0r	.	.	4e-]	.	.	4g]	.	.	1b-]	.	.
4F	.	.	.	.	.	.	.	.	4d	.	.	4f	.	.	.	.	.
2G	.	.	.	.	.	.	.	.	2B-	.	.	2d	.	.	.	.	.
2C	.	.	.	.	.	.	.	.	2c	mun-	.	2e-	.	.	[1g	mun-	.
2D	.	.	.	.	.	.	.	.	2B-	.	.	[2d	.	.	.	.	.
=33	=33	=33	=33	=33	=33	=33	=33	=33	=33	=33	=33	=33	=33	=33	=33	=33	=33
1E-i	.	.	0r	.	.	1r	.	.	1G	-di:	.	2d]	.	.	1g]	.	.
.	.	.	.	.	.	.	.	.	.	.	.	2c	.	.	.	.	.
[1D	-di:	.	.	.	.	1F	mi-	do-	1A	.	.	1d	.	.	1f	-di:	.
=34	=34	=34	=34	=34	=34	=34	=34	=34	=34	=34	=34	=34	=34	=34	=34	=34	=34
1D]	.	.	2.GG	do-	mi-	0G	-se-	-na	2.G	mi-	do-	2.B-	.	.	2r	.	.
.	.	.	.	.	.	.	.	.	.	.	.	.	.	.	1b-	mi-	do-
.	.	.	4AA	.	.	.	.	.	4F	.	.	4c	.	.	.	.	.
1r	.	.	2BB-	.	.	.	.	.	2D	.	.	2d	.	.	.	.	.
.	.	.	2C	-na	-se-	.	.	.	[2E	-se-	-na	2c	.	.	2g	-se-	-na
=35	=35	=35	=35	=35	=35	=35	=35	=35	=35	=35	=35	=35	=35	=35	=35	=35	=35
0r	.	.	2.AA	no-	-re-	0A	-re-	no-	2E]	.	.	1c	-di:	.	1.cc	-re-	no-
.	.	.	.	.	.	.	.	.	2C	.	.	.	.	.	.	.	.
.	.	.	4BB-	.	.	.	.	.	.	.	.	.	.	.	.	.	.
.	.	.	2C	.	.	.	.	.	2E	-re-	no-	2r	.	.	.	.	.
.	.	.	2D	.	.	.	.	.	2F	-re	-bis	[2d	mi-	do-	2a	.	.
=36	=36	=36	=36	=36	=36	=36	=36	=36	=36	=36	=36	=36	=36	=36	=36	=36	=36
2.GG	mi-	do-	2GG	-bis,	-re,	1G	-re,	-bis,	0G	no-	pa-	2d]	.	.	1.b-	.	.
.	.	.	1G	do-	mi-	.	.	.	.	.	.	2B-	-se-	-na	.	.	.
4AA	.	.	.	.	.	.	.	.	.	.	.	.	.	.	.	.	.
2BB-	.	.	.	.	.	1r	.	.	.	.	.	2d	-re-	no-	.	.	.
2C	-se-	-na	2E	-na	-se-	.	.	.	.	.	.	[2e	.	.	2g	.	.
=37	=37	=37	=37	=37	=37	=37	=37	=37	=37	=37	=37	=37	=37	=37	=37	=37	=37
2.AA	-re-	no-	2E	no-	-re-	1r	.	.	0A	.	.	2e]	.	.	1.cc	.	.
.	.	.	2.A	-bis	-re	.	.	.	.	.	.	2c	.	.	.	.	.
4BB-	.	.	.	.	.	.	.	.	.	.	.	.	.	.	.	.	.
2C	.	.	.	.	.	2r	.	.	.	.	.	2e	-re	-bis	.	.	.
.	.	.	4G	.	.	.	.	.	.	.	.	.	.	.	.	.	.
2D	.	.	4F	.	.	2d	mi-	do-	.	.	.	2f	no-	pa-	2a	-re	-bis
.	.	.	4E	.	.	.	.	.	.	.	.	.	.	.	.	.	.
=38	=38	=38	=38	=38	=38	=38	=38	=38	=38	=38	=38	=38	=38	=38	=38	=38	=38
1GG	-re,	-bis,	2D	pa-	no-	4d	-se-	-na	1G	-bis,	-cem,	1g	.	.	1.b-	no-	pa-
.	.	.	.	.	.	4c	.	.	.	.	.	.	.	.	.	.	.
.	.	.	1G	.	.	4B-	.	.	.	.	.	.	.	.	.	.	.
.	.	.	.	.	.	4A	.	.	.	.	.	.	.	.	.	.	.
1r	.	.	.	.	.	2G	.	.	1r	.	.	2d	.	.	.	.	.
.	.	.	2F	.	.	2c	-re-	no-	.	.	.	2f	.	.	[2a	.	.
=39	=39	=39	=39	=39	=39	=39	=39	=39	=39	=39	=39	=39	=39	=39	=39	=39	=39
0r	.	.	2G	.	.	2B-	.	.	1r	.	.	2d	.	.	4a]	.	.
.	.	.	.	.	.	.	.	.	.	.	.	.	.	.	4g	.	.
.	.	.	2C	.	.	2c	.	.	.	.	.	2e-i	.	.	1g	.	.
.	.	.	1D	-cem,	-bis,	1A	-re	-bis	2r	.	.	[1d	-bis,	-cem,	.	.	.
.	.	.	.	.	.	.	.	.	2A	mi-	do-	.	.	.	2f#i	.	.
=40	=40	=40	=40	=40	=40	=40	=40	=40	=40	=40	=40	=40	=40	=40	=40	=40	=40
2.GG	mi-	do-	0r	.	.	0G	no-	pa-	2.B-	-se-	-na	1d]	.	.	2.g	.	.
4AA	.	.	.	.	.	.	.	.	4c	.	.	.	.	.	4f	.	.
2BB-	.	.	.	.	.	.	.	.	2d	.	.	1r	.	.	2d	.	.
2C	-se-	-na	.	.	.	.	.	.	[2c	-re-	no-	.	.	.	[2e	.	.
=41	=41	=41	=41	=41	=41	=41	=41	=41	=41	=41	=41	=41	=41	=41	=41	=41	=41
2.AA	-re-	no-	0r	.	.	0A	.	.	4c]	.	.	1r	.	.	2e]	.	.
.	.	.	.	.	.	.	.	.	4B-	.	.	.	.	.	.	.	.
.	.	.	.	.	.	.	.	.	2.A	.	.	.	.	.	2c	.	.
4BB-	.	.	.	.	.	.	.	.	.	.	.	.	.	.	.	.	.
2C	.	.	.	.	.	.	.	.	.	.	.	2r	.	.	2e	.	.
.	.	.	.	.	.	.	.	.	4G	.	.	.	.	.	.	.	.
2D	.	.	.	.	.	.	.	.	4F	.	.	2d	no-	pa-	2f	.	.
.	.	.	.	.	.	.	.	.	4E	.	.	.	.	.	.	.	.
=42	=42	=42	=42	=42	=42	=42	=42	=42	=42	=42	=42	=42	=42	=42	=42	=42	=42
[0GG	-re	-bis	2r	.	.	[0Gl	-bis.&	-cem.&	2D	-re	-bis	2B-	.	.	[0g	-bis,	-cem,
.	.	.	2B-	pa-	no-	.	.	.	2d	no-	pa-	2.d	.	.	.	.	.
.	.	.	2G	.	.	.	.	.	2B-	.	.	.	.	.	.	.	.
.	.	.	.	.	.	.	.	.	.	.	.	4c	.	.	.	.	.
.	.	.	[2B-	.	.	.	.	.	[2d	.	.	4B-	.	.	.	.	.
.	.	.	.	.	.	.	.	.	.	.	.	4A	.	.	.	.	.
=43	=43	=43	=43	=43	=43	=43	=43	=43	=43	=43	=43	=43	=43	=43	=43	=43	=43
1GG]	.	.	4B-]	.	.	0G_	.	.	4d]	.	.	2G	.	.	0g]	.	.
.	.	.	4A	.	.	.	.	.	4c	.	.	.	.	.	.	.	.
.	.	.	4G	.	.	.	.	.	4B-	.	.	2d	.	.	.	.	.
.	.	.	4F	.	.	.	.	.	4A	.	.	.	.	.	.	.	.
1r	.	.	2E	.	.	.	.	.	2G	.	.	1e	.	.	.	.	.
.	.	.	2C	.	.	.	.	.	[2c	.	.	.	.	.	.	.	.
=44	=44	=44	=44	=44	=44	=44	=44	=44	=44	=44	=44	=44	=44	=44	=44	=44	=44
2r	.	.	1G	-cem,	-bis,	0G_	.	.	2c]	.	.	1d	-bis,	-cem,	2r	.	.
2G	no-	pa-	.	.	.	.	.	.	2B-	.	.	.	.	.	2b-	no-	pa-
2C	.	.	1r	.	.	.	.	.	2c	.	.	1r	.	.	2g	.	.
[2G	.	.	.	.	.	.	.	.	2d	.	.	.	.	.	[2b-	.	.
=45	=45	=45	=45	=45	=45	=45	=45	=45	=45	=45	=45	=45	=45	=45	=45	=45	=45
4G]	.	.	0r	.	.	0G_	.	.	1B-	.	.	0g	mi-	do-	4b-]	.	.
4F	.	.	.	.	.	.	.	.	.	.	.	.	.	.	4a	.	.
4E	.	.	.	.	.	.	.	.	.	.	.	.	.	.	4g	.	.
4D	.	.	.	.	.	.	.	.	.	.	.	.	.	.	4f	.	.
2C	.	.	.	.	.	.	.	.	2c	.	.	.	.	.	2e	.	.
2BB-	.	.	.	.	.	.	.	.	2d	.	.	.	.	.	2d	-bis,	-cem,
=46	=46	=46	=46	=46	=46	=46	=46	=46	=46	=46	=46	=46	=46	=46	=46	=46	=46
2C	.	.	2r	.	.	0G_	.	.	2e-i	.	.	1g	-se-	-na	2r	.	.
2GG	.	.	2B-	pa-	no-	.	.	.	2.d	.	.	.	.	.	2dd	no-	pa-
[1GG	.	.	2G	.	.	.	.	.	.	.	.	1g	-re-	no-	2b-	.	.
.	.	.	.	.	.	.	.	.	4c	.	.	.	.	.	.	.	.
.	.	.	[2B-	.	.	.	.	.	4B-	.	.	.	.	.	[2dd	.	.
.	.	.	.	.	.	.	.	.	4A	.	.	.	.	.	.	.	.
=47	=47	=47	=47	=47	=47	=47	=47	=47	=47	=47	=47	=47	=47	=47	=47	=47	=47
1GG]	.	.	4B-]	.	.	0G_	.	.	2G	.	.	1d	-re	-bis	4dd]	.	.
.	.	.	4A	.	.	.	.	.	.	.	.	.	.	.	4cc	.	.
.	.	.	4G	.	.	.	.	.	2B-	.	.	.	.	.	4b-	.	.
.	.	.	4F	.	.	.	.	.	.	.	.	.	.	.	4a	.	.
1C	.	.	2E	.	.	.	.	.	1c	.	.	1e	no-	pa-	2.g	.	.
.	.	.	2C	.	.	.	.	.	.	.	.	.	.	.	.	.	.
.	.	.	.	.	.	.	.	.	.	.	.	.	.	.	4a	.	.
=48	=48	=48	=48	=48	=48	=48	=48	=48	=48	=48	=48	=48	=48	=48	=48	=48	=48
[0GGl	-bis.&	-cem.&	[0Dl	-cem.&	-bis.&	0G_	.	.	[0B-l	-bis.&	-cem.&	[0dl	-bis.&	-cem.&	2b-	.	.
.	.	.	.	.	.	.	.	.	.	.	.	.	.	.	2g	.	.
.	.	.	.	.	.	.	.	.	.	.	.	.	.	.	2.b-	.	.
.	.	.	.	.	.	.	.	.	.	.	.	.	.	.	4cc	.	.
=49	=49	=49	=49	=49	=49	=49	=49	=49	=49	=49	=49	=49	=49	=49	=49	=49	=49
0GG_	.	.	0D_	.	.	0G_	.	.	0B-_	.	.	0d_	.	.	1.dd	.	.
.	.	.	.	.	.	.	.	.	.	.	.	.	.	.	2b-	.	.
=50	=50	=50	=50	=50	=50	=50	=50	=50	=50	=50	=50	=50	=50	=50	=50	=50	=50
0GG]	.	.	0D]	.	.	0G]	.	.	0B-]	.	.	0d]	.	.	0b-l	-bis.	-cem.
==	==	==	==	==	==	==	==	==	==	==	==	==	==	==	==	==	==
*-	*-	*-	*-	*-	*-	*-	*-	*-	*-	*-	*-	*-	*-	*-	*-	*-	*-
!!!RDF**kern: l=long note in original notation
!!!RDF**kern: i=editorial accidental
!!!RDF**kern: V=start of tuplet marker
!!!RDF**kern: Z=end of tuplet marker
!!!ENC: Stephanie Schlagel 2016/05/23
!!!END: 2016/05/23/
!!!EED: Jesse Rodin
!!!EEV: 2016/05/30/
!!!ONB: Translated from MusicXML and edited on 2016/05/30/ by Craig Sapp
!!muse2ps: T^@{OPR}^u^@{ONM}{. }@{OTL}^C^@{COM}^i2I150v80,80,80,80,80,120Q16z18c60l2650
